X:88
T:Reel 88
M:4/4
K:Amaj
L:1/8
A2GA EDB,D|ECDB, G,A,B,G,|EA (3AGA EDB,^D|ECDB, EA,A,2:|EA (3AGA cABG|EAce dBB2|EA (3AGA cABA|GEDB, B,A,A,2|A2 (3AAA cAAA|BEEF GABd|c2cA BcBA|GEDB, B,A,A,2|
